src/images/alienface.svg

<svg fill="none" height="158" viewBox="0 0 154 158" width="154" xmlns="http://www.w3.org/2000/svg" xmlns:xlink="http://www.w3.org/1999/xlink"><clipPath id="a"><path d="m0 0h108v120h-108z" transform="matrix(.8660254 .5 -.5 .8660254 60 0)"/></clipPath><g clip-path="url(#a)"><path d="m130.913 73.2053c.726 16.56-4.016 30.2017-13.743 41.9957-6.248 7.567-12.83 14.865-19.4526 22.11-1.9571 2.137-4.4496 3.836-6.893 5.471-8.1539 5.441-15.7124 5.485-23.6544-.265-3.9147-2.771-7.5133-5.964-10.7309-9.52-5.8958-6.676-11.473-13.652-16.919-20.703-8.0171-10.37-11.4706-22.2977-11.7849-35.266-.2165-8.1953.2275-16.3121 2.9189-24.127 6.4228-18.6337 19.8671-28.8116 39.0456-31.6086 9.9259-1.4662 19.8663-.9968 29.4217 2.3831 18.6306 6.5814 28.4866 20.2547 31.3656 39.4027.23 1.3248.378 2.6623.442 4.005.049 2.4509-.01 4.868-.016 6.1221zm-64.5499 44.8967c7.3295.04 9.2493-2.346 7.8788-8.057-.3773-1.549-.9001-3.06-1.5615-4.512-3.4375-7.6131-8.4738-14.4012-14.7668-19.9029-2.0163-1.7669-4.2888-3.2183-6.7399-4.3048-4.2035-1.8154-8.6383-.0263-10.0713 4.3053-.9013 2.7637-1.3557 6.0067-.8482 8.8267 1.5836 8.8797 7.5123 14.7717 14.8091 19.4557 3.8953 2.511 8.1095 4.106 11.2998 4.189zm24.8218.194c.8546-.029 1.7057-.122 2.5463-.277 9.7968-2.222 17.2168-7.808 22.2058-16.398 1.468-2.6287 2.389-5.527 2.708-8.5217.447-4.0796-.243-8.2105-4.099-10.7281-3.497-2.281-7.062-1.282-10.143.9218-9.5318 6.8177-16.6513 15.5813-20.2195 26.855-1.729 5.471.512 8.098 7.0014 8.148zm-22.6185 10.756c.8213 3.904 6.8389 5.73 11.5223 5.4 3.8813-.274 7.5829-.914 9.8365-5.232z" fill="#cacccc"/></g></svg>

<svg width="154" height="158" viewBox="0 0 154 158" fill="none" xmlns="http://www.w3.org/2000/svg">
<g clip-path="url(#clip0_282_703)">
<path d="M130.913 73.2053C131.639 89.7653 126.897 103.407 117.17 115.201C110.922 122.768 104.34 130.066 97.7174 137.311C95.7603 139.448 93.2678 141.147 90.8244 142.782C82.6705 148.223 75.112 148.267 67.17 142.517C63.2553 139.746 59.6567 136.553 56.4391 132.997C50.5433 126.321 44.9661 119.345 39.5201 112.294C31.503 101.924 28.0495 89.9963 27.7352 77.028C27.5187 68.8327 27.9627 60.7159 30.6541 52.901C37.0769 34.2673 50.5212 24.0894 69.6997 21.2924C79.6256 19.8262 89.566 20.2956 99.1214 23.6755C117.752 30.2569 127.608 43.9302 130.487 63.0782C130.717 64.403 130.865 65.7405 130.929 67.0832C130.978 69.5341 130.919 71.9512 130.913 73.2053ZM66.3631 118.102C73.6926 118.142 75.6124 115.756 74.2419 110.045C73.8646 108.496 73.3418 106.985 72.6804 105.533C69.2429 97.9199 64.2066 91.1318 57.9136 85.6301C55.8973 83.8632 53.6248 82.4118 51.1737 81.3253C46.9702 79.5099 42.5354 81.299 41.1024 85.6306C40.2011 88.3943 39.7467 91.6373 40.2542 94.4573C41.8378 103.337 47.7665 109.229 55.0633 113.913C58.9586 116.424 63.1728 118.019 66.3631 118.102V118.102ZM91.1849 118.296C92.0395 118.267 92.8906 118.174 93.7312 118.019C103.528 115.797 110.948 110.211 115.937 101.621C117.405 98.9923 118.326 96.094 118.645 93.0993C119.092 89.0197 118.402 84.8888 114.546 82.3712C111.049 80.0902 107.484 81.0892 104.403 83.293C94.8712 90.1107 87.7517 98.8743 84.1835 110.148C82.4545 115.619 84.6955 118.246 91.1849 118.296V118.296ZM68.5664 129.052C69.3877 132.956 75.4053 134.782 80.0887 134.452C83.97 134.178 87.6716 133.538 89.9252 129.22L68.5664 129.052Z" fill="#CACCCC"/>
</g>
<defs>
<clipPath id="clip0_282_703">
<rect width="108" height="120" fill="white" transform="translate(60) rotate(30)"/>
</clipPath>
</defs>
</svg>
